svg/u1f6b9.svg

<svg viewBox="0 0 128 128" xmlns="http://www.w3.org/2000/svg">
  <g>
    <path d="M116,4H12c-4.42,0-8,3.58-8,8v104c0,4.42,3.58,8,8,8h104c4.42,0,8-3.58,8-8V12 C124,7.58,120.42,4,116,4z" fill="#194FA5"/>
    <path d="M109.7,4H11.5C7.37,4.03,4.03,7.37,4,11.5v97.9c-0.01,4.14,3.34,7.49,7.48,7.5c0.01,0,0.01,0,0.02,0 h98.1c4.14,0.01,7.49-3.34,7.5-7.48c0-0.01,0-0.01,0-0.02V11.5c0.09-4.05-3.13-7.41-7.18-7.5C109.85,4,109.77,4,109.7,4z" fill="#2262DD"/>
    <path d="M39.7,12.9c0-2.3-1.6-3-10.8-2.7c-7.7,0.3-11.5,1.2-13.8,4 c-1.9,2.3-2.3,5.6-2.6,8.4c-0.2,2.2-2.2,14.9,3.5,11.2c0.68-0.45,1.23-1.07,1.6-1.8c1.2-2.1,1.9-3.5,3.3-5.6 C26.2,17.8,39.7,15.9,39.7,12.9z" opacity="0.3" fill="#68ABE6" enable-background="new "/>
    <path d="M39.7,12.9c0-2.3-1.6-3-10.8-2.7c-7.7,0.3-11.5,1.2-13.8,4 c-1.9,2.3-2.3,5.6-2.6,8.4c-0.2,2.2-2.2,14.9,3.5,11.2c0.68-0.45,1.23-1.07,1.6-1.8c1.2-2.1,1.9-3.5,3.3-5.6 C26.2,17.8,39.7,15.9,39.7,12.9z" opacity="0.65" fill="#68ABE6" enable-background="new "/>
  </g>
  <circle cx="62.15" cy="25.47" r="9.35" fill="#FFFFFF"/>
  <path d="M81.52,72.35c1.68-0.61,2.56-2.52,1.98-4.27l-8.67-25.25c-1.13-3.49-6.4-6.13-12.74-6.13 c-6.32,0-11.58,2.63-12.74,6.1l-8.56,25.29c-0.59,1.75,0.3,3.66,1.98,4.27c1.68,0.61,3.52-0.31,4.1-2.06l5.15-16.47 c0.09-0.28,0.5-0.22,0.5,0.08v47.79c0,2.31,1.8,4.19,4.03,4.19s4.03-1.88,4.03-4.19V71.78c0-0.93,0.72-1.67,1.61-1.67 s1.61,0.75,1.61,1.67v29.91c0,2.31,1.8,4.19,4.03,4.19s4.03-1.88,4.03-4.19V53.93c0-0.3,0.4-0.36,0.5-0.08l5.07,16.45 C78,72.04,79.85,72.96,81.52,72.35L81.52,72.35z" fill="#FFFFFF"/>
</svg>

<svg viewBox="0 0 128 128" xmlns="http://www.w3.org/2000/svg">
  <defs/>
  <path d="M116,4 L12,4 C7.58,4 4,7.58 4,12 L4,116 C4,120.42 7.58,124 12,124 L116,124 C120.42,124 124,120.42 124,116 L124,12 C124,7.58 120.42,4 116,4 Z" fill="#194FA5"/>
  <path d="M109.7,4 L11.5,4 C7.37,4.03 4.03,7.37 4,11.5 L4,109.4 C3.99,113.54 7.34,116.89 11.48,116.9 C11.49,116.9 11.49,116.9 11.5,116.9 L109.6,116.9 C113.74,116.91 117.09,113.56 117.1,109.42 C117.1,109.41 117.1,109.41 117.1,109.4 L117.1,11.5 C117.19,7.45 113.97,4.09 109.92,4 C109.85,4 109.77,4 109.7,4 Z" fill="#2262DD"/>
  <path d="M39.7,12.9 C39.7,10.6 38.1,9.9 28.9,10.2 C21.2,10.5 17.4,11.4 15.1,14.2 C13.2,16.5 12.8,19.8 12.5,22.6 C12.3,24.8 10.3,37.5 16,33.8 C16.68,33.35 17.23,32.73 17.6,32 C18.8,29.9 19.5,28.5 20.9,26.4 C26.2,17.8 39.7,15.9 39.7,12.9 Z" fill="#68ABE6" opacity="0.3"/>
  <path d="M39.7,12.9 C39.7,10.6 38.1,9.9 28.9,10.2 C21.2,10.5 17.4,11.4 15.1,14.2 C13.2,16.5 12.8,19.8 12.5,22.6 C12.3,24.8 10.3,37.5 16,33.8 C16.68,33.35 17.23,32.73 17.6,32 C18.8,29.9 19.5,28.5 20.9,26.4 C26.2,17.8 39.7,15.9 39.7,12.9 Z" fill="#68ABE6" opacity="0.65"/>
  <path d="M71.5,25.47 A9.35 9.35 0 1 1 52.8,25.47 A9.35 9.35 0 1 1 71.5,25.47 Z" fill="#FFFFFF"/>
  <path d="M81.52,72.35 C83.2,71.74 84.08,69.83 83.5,68.08 L74.83,42.83 C73.7,39.34 68.43,36.7 62.09,36.7 C55.77,36.7 50.51,39.33 49.35,42.8 L40.79,68.09 C40.2,69.84 41.09,71.75 42.77,72.36 C44.45,72.97 46.29,72.05 46.87,70.3 L52.02,53.83 C52.11,53.55 52.52,53.61 52.52,53.91 L52.52,101.7 C52.52,104.01 54.32,105.89 56.55,105.89 C58.78,105.89 60.58,104.01 60.58,101.7 L60.58,71.78 C60.58,70.85 61.3,70.11 62.19,70.11 C63.08,70.11 63.8,70.86 63.8,71.78 L63.8,101.69 C63.8,104 65.6,105.88 67.83,105.88 C70.06,105.88 71.86,104 71.86,101.69 L71.86,53.93 C71.86,53.63 72.26,53.57 72.36,53.85 L77.43,70.3 C78,72.04 79.85,72.96 81.52,72.35 L81.52,72.35 Z" fill="#FFFFFF"/>
</svg>
